resources/svg/hotel-fill.svg

<svg xmlns="http://www.w3.org/2000/svg" viewBox="0 0 24 24" fill="currentColor">
    <g>
        <path fill="none" d="M0 0h24v24H0z"/>
        <path d="M17 19h2v-8h-6v8h2v-6h2v6zM3 19V4a1 1 0 0 1 1-1h14a1 1 0 0 1 1 1v5h2v10h1v2H2v-2h1zm4-8v2h2v-2H7zm0 4v2h2v-2H7zm0-8v2h2V7H7z"/>
    </g>
</svg>

<svg fill="currentColor" viewBox="0 0 24 24" xmlns="http://www.w3.org/2000/svg"><path d="M17 19H19V11H13V19H15V13H17V19ZM3 19V4C3 3.44772 3.44772 3 4 3H18C18.5523 3 19 3.44772 19 4V9H21V19H22V21H2V19H3ZM7 11V13H9V11H7ZM7 15V17H9V15H7ZM7 7V9H9V7H7Z"/></svg>
